X:27
T:The constant Lover.
T:John Malchair's Third Collection of Tunes
%%VWML:Malchair-3619-p27
F:https://www.vwml.org/record/Malchair/3619/p27
F:www.vwml.org/topics/historic-dance-and-tune-books/Malchair
Z:Eric Conrad Jan 2020
M:C|
L:1/8
K:F
cB | ABcd cBAG | F2F2 F2f2 | e2d2 e2f2 | g4 G4 |
ABcd cBAG | F2F2 F2f2 | g2c2 dfeg | f6 ||
gf | efga gfed | c2c2 c2e2 | f2g2 a2ga | b6 a2 |
gagf efed | cdcB A2c2 | Bdce dfeg | f6 |]
W:
T:The Pursuit.
T:John Malchair's Third Collection of Tunes
F:https://www.vwml.org/record/Malchair/3619/p27
F:www.vwml.org/topics/historic-dance-and-tune-books/Malchair
M:C|
L:1/8
K:Dmix
G2 | E3F G2B2 | d3e (de)(dc) | B2d2 g2B2 | A4 E2E2 |
G3A B2d2 | g3a g2e2 | g3a (ga)(ge) | d2 B4 ||
ba | g3a g2ba | g3a (ga)(ge) | (de)(dB) (de)(dB) | A2 e4 f2 |
g3a g2(fe) | d3e d2(cB) | G3A B2e2 | d2 B4 |]
W:
T:Mug House.
T:John Malchair's Third Collection of Tunes
F:https://www.vwml.org/record/Malchair/3619/p27
F:www.vwml.org/topics/historic-dance-and-tune-books/Malchair
% Z:Eric Conrad Jan 2020
M:6/4
L:1/4
K:F
|: d | B>cd (ec)e | (dB)g B>AG | (AF)A A2c | 
B>cd (ec)e | (fd)f g2d | (BG)G G2 :|
|: B | (AF)A (AF)A | (AF)d (AF)B | (GE)E E2A | 
(FD)d (Be)d | (ae)a (fd)b | (ga)f g2 :|


